assets/Fly/Flat/fly_flat.svg

<svg width="32" height="32" viewBox="0 0 32 32" fill="none" xmlns="http://www.w3.org/2000/svg">
<path d="M19.12 11.5075C18.9 11.5075 18.69 11.4175 18.54 11.2375C18.28 10.9175 18.32 10.4475 18.64 10.1775L21.25 8.0275C21.74 7.6275 22.01 7.0375 22.01 6.4075V4.2075C22.01 3.7175 22.2 3.2475 22.55 2.8975L23.23 2.2175C23.52 1.9275 24 1.9275 24.29 2.2175C24.58 2.5075 24.58 2.9875 24.29 3.2775L23.61 3.9575C23.54 4.0275 23.51 4.1075 23.51 4.2075V6.4075C23.51 7.4875 23.03 8.4975 22.2 9.1775L19.6 11.3375C19.46 11.4575 19.29 11.5075 19.12 11.5075Z" fill="#212121"/>
<path d="M15.98 19.1273C15.8316 19.2705 15.6458 19.3374 15.46 19.3374C15.27 19.3374 15.08 19.2674 14.93 19.1174L7.99004 12.1774C7.56004 11.7474 6.99004 11.5074 6.38004 11.5074H5.70004C5.29004 11.5074 4.95004 11.1674 4.95004 10.7574C4.95004 10.3474 5.29004 10.0074 5.70004 10.0074H6.38004C7.39004 10.0074 8.34004 10.3974 9.05004 11.1174L15.98 18.0474L22.91 11.1174C23.62 10.3974 24.57 10.0074 25.58 10.0074H26.26C26.67 10.0074 27.01 10.3474 27.01 10.7574C27.01 11.1674 26.67 11.5074 26.26 11.5074H25.58C24.97 11.5074 24.4 11.7474 23.97 12.1774L17.03 19.1174C16.88 19.2674 16.69 19.3374 16.5 19.3374C16.3142 19.3374 16.1284 19.2705 15.98 19.1273Z" fill="#212121"/>
<path d="M13.48 11.2375C13.33 11.4175 13.12 11.5075 12.9 11.5075C12.74 11.5075 12.57 11.4575 12.42 11.3375L9.81004 9.18751C8.98004 8.50751 8.50004 7.49751 8.50004 6.41751V4.21751C8.50004 4.11751 8.47004 4.03751 8.40004 3.96751L7.73004 3.28751C7.44004 2.99751 7.44004 2.51751 7.73004 2.22751C8.02004 1.93751 8.50004 1.93751 8.79004 2.22751L9.47004 2.90751C9.82004 3.25751 10.01 3.72751 10.01 4.21751V6.41751C10.01 7.04751 10.28 7.63751 10.77 8.03751L13.38 10.1775C13.7 10.4475 13.74 10.9175 13.48 11.2375Z" fill="#212121"/>
<path d="M11.16 5.79745C11.0183 6.374 11.4214 6.94163 11.998 7.00213C11.3713 7.83743 11 8.87535 11 10C11 10.3181 11.0297 10.6292 11.0865 10.9308L11 11V14.4213C8.74963 18.2173 9.22758 23.225 12.53 26.5274L12.6 26.5974C13.5 27.4974 14.73 28.0074 16.01 28.0074C17.29 28.0074 18.52 27.4974 19.42 26.5974L19.49 26.5274C22.8023 23.2152 23.2732 18.1877 21 14.3876V11L20.9135 10.9308C20.9703 10.6292 21 10.3181 21 10C21 8.87577 20.629 7.83821 20.0027 7.00308C20.5852 6.94782 21.0026 6.37715 20.86 5.79745C20.7918 5.52182 20.7006 5.2553 20.5888 5L17.0201 2.10963C16.6938 2.04263 16.3559 2.00745 16.01 2.00745C15.6641 2.00745 15.3263 2.04263 15 2.10963L11.4313 5C11.3195 5.2553 11.2283 5.52182 11.16 5.79745Z" fill="#533566"/>
<path d="M11.4301 5.00754C12.0701 3.53754 13.4001 2.43754 15.0101 2.10754H15.0201V2.58754C15.0201 3.92754 13.9301 5.00754 12.6001 5.00754H11.4301Z" fill="#F8312F"/>
<path d="M17.01 2.58754V2.10754C18.62 2.43754 19.95 3.53754 20.6 5.00754H19.43C18.09 5.00754 17.01 3.91754 17.01 2.58754Z" fill="#F8312F"/>
<path d="M11.0796 10.8434C11.4224 12.88 12.9965 14.4987 15.01 14.9074V20.6374C15.01 22.7574 14.01 24.7574 12.31 26.0374L10 27.7673L9.5 27.5L9.02154 28.5L8.01004 29.2574C7.36004 29.7474 6.57004 30.0074 5.76004 30.0074C4.15702 30.0074 2.78789 28.9999 2.24709 27.584L2.5 26.5L2.00516 26.4378C2.00205 26.378 2.00033 26.3179 2.00004 26.2574C1.99004 21.6474 3.94004 17.2474 7.38004 14.1674L9.01863 12.6952L9.5 13L10.0169 11.7982L11.0796 10.8434Z" fill="#AEDDFF"/>
<path d="M20.9405 10.8434C20.5977 12.88 19.0235 14.4987 17.01 14.9074V20.6374C17.01 22.7574 18.01 24.7574 19.71 26.0374L22.023 27.7687L22.5 27.5L23 28.5L24.01 29.2574C24.66 29.7474 25.45 30.0074 26.26 30.0074C27.864 30.0074 29.2338 28.9987 29.774 27.5861L29.5 26.5L30.0152 26.4415C30.0181 26.3838 30.0198 26.3258 30.02 26.2674C30.03 21.6474 28.07 17.2474 24.64 14.1674L23 12.6939L22.5 13L22.0156 11.8094L20.9405 10.8434Z" fill="#AEDDFF"/>
<path d="M9.01003 20.8375L2.25003 27.5975C2.11003 27.2275 2.02003 26.8375 2.00003 26.4275L9.01003 19.4175V12.6975L10.01 11.7975V27.7575L9.01003 28.5075V20.8375Z" fill="#00A6ED"/>
<path d="M23.01 20.8375L29.77 27.5975C29.91 27.2275 29.99 26.8375 30.02 26.4275L23.01 19.4175V12.6975L22.01 11.7975V27.7575L23.01 28.5075V20.8375Z" fill="#00A6ED"/>
</svg>

<svg xmlns="http://www.w3.org/2000/svg" width="32" height="32" fill="none"><path fill="#212121" d="M19.12 11.508c-.22 0-.43-.09-.58-.27a.758.758 0 0 1 .1-1.06l2.61-2.15c.49-.4.76-.99.76-1.62v-2.2c0-.49.19-.96.54-1.31l.68-.68c.29-.29.77-.29 1.06 0 .29.29.29.77 0 1.06l-.68.68c-.07.07-.1.15-.1.25v2.2c0 1.08-.48 2.09-1.31 2.77l-2.6 2.16c-.14.12-.31.17-.48.17Z"/><path fill="#212121" d="M15.98 19.127a.741.741 0 0 1-.52.21c-.19 0-.38-.07-.53-.22l-6.94-6.94c-.43-.43-1-.67-1.61-.67H5.7c-.41 0-.75-.34-.75-.75s.34-.75.75-.75h.68c1.01 0 1.96.39 2.67 1.11l6.93 6.93 6.93-6.93a3.72 3.72 0 0 1 2.67-1.11h.68c.41 0 .75.34.75.75s-.34.75-.75.75h-.68c-.61 0-1.18.24-1.61.67l-6.94 6.94c-.15.15-.34.22-.53.22a.741.741 0 0 1-.52-.21Z"/><path fill="#212121" d="M13.48 11.238a.763.763 0 0 1-1.06.1l-2.61-2.15a3.57 3.57 0 0 1-1.31-2.77v-2.2c0-.1-.03-.18-.1-.25l-.67-.68a.754.754 0 0 1 0-1.06c.29-.29.77-.29 1.06 0l.68.68c.35.35.54.82.54 1.31v2.2c0 .63.27 1.22.76 1.62l2.61 2.14c.32.27.36.74.1 1.06Z"/><path fill="#533566" d="M11.16 5.797a.977.977 0 0 0 .838 1.205A4.978 4.978 0 0 0 11 10c0 .318.03.63.086.93L11 11v3.421c-2.25 3.796-1.772 8.804 1.53 12.106l.07.07a4.83 4.83 0 0 0 6.82 0l.07-.07c3.312-3.312 3.783-8.34 1.51-12.14V11l-.087-.07a4.978 4.978 0 0 0-.91-3.928.983.983 0 0 0 .857-1.205A4.954 4.954 0 0 0 20.589 5L17.02 2.11a5.019 5.019 0 0 0-2.02 0L11.431 5a4.964 4.964 0 0 0-.271.797Z"/><path fill="#F8312F" d="M11.43 5.008a5.009 5.009 0 0 1 3.58-2.9h.01v.48c0 1.34-1.09 2.42-2.42 2.42h-1.17ZM17.01 2.588v-.48c1.61.33 2.94 1.43 3.59 2.9h-1.17c-1.34 0-2.42-1.09-2.42-2.42Z"/><path fill="#AEDDFF" d="M11.08 10.843a5.005 5.005 0 0 0 3.93 4.064v5.73c0 2.12-1 4.12-2.7 5.4L10 27.767l-.5-.267-.478 1-1.012.757c-.65.49-1.44.75-2.25.75a3.764 3.764 0 0 1-3.513-2.423L2.5 26.5l-.495-.062a3.825 3.825 0 0 1-.005-.18c-.01-4.61 1.94-9.01 5.38-12.09l1.639-1.473L9.5 13l.517-1.202 1.063-.955ZM20.94 10.843a5.005 5.005 0 0 1-3.93 4.064v5.73c0 2.12 1 4.12 2.7 5.4l2.313 1.732.477-.269.5 1 1.01.757c.65.49 1.44.75 2.25.75a3.767 3.767 0 0 0 3.514-2.42L29.5 26.5l.515-.058a3.72 3.72 0 0 0 .005-.175c.01-4.62-1.95-9.02-5.38-12.1L23 12.694l-.5.306-.484-1.19-1.075-.967Z"/><path fill="#00A6ED" d="m9.01 20.837-6.76 6.76c-.14-.37-.23-.76-.25-1.17l7.01-7.01v-6.72l1-.9v15.96l-1 .75v-7.67ZM23.01 20.837l6.76 6.76c.14-.37.22-.76.25-1.17l-7.01-7.01v-6.72l-1-.9v15.96l1 .75v-7.67Z"/></svg>
